X:2181
T:In Scotland
C:Traditional 
O:Isle of Man
Z:Clague collection
B:Kiaull Vanninn #181 
M:3/4 
L:1/4
Q:120 
K:D 
E|E B B|B A B|G F G|F2 F|G F G|A G A|B2 G/A/| 
B e e|d B G|A G E|G2 F/G/|A2 G/A/|B G F|E2|| 

